Sources/FrostedUI/Resources/Icons.xcassets/dashedCircle24.imageset/dashed-circle-24.svg

<svg width="24" height="24" viewBox="0 0 24 24" fill="none" xmlns="http://www.w3.org/2000/svg" data-fui-icon="true">
  <path
    d="M14.3408 23.7705C13.5836 23.9202 12.8011 24 12 24C11.1986 24 10.4157 23.9204 9.6582 23.7705L9.94922 22.2998C10.6113 22.4308 11.2968 22.5 12 22.5C12.7032 22.5 13.3887 22.4308 14.0508 22.2998L14.3408 23.7705ZM3.26758 17.833C4.03459 18.9787 5.02133 19.9654 6.16699 20.7324L5.33301 21.9775C4.02425 21.1013 2.89759 19.9749 2.02148 18.666L3.26758 17.833ZM21.9775 18.666C21.1013 19.9749 19.9749 21.1013 18.666 21.9775L17.833 20.7324C18.9787 19.9654 19.9654 18.9787 20.7324 17.833L21.9775 18.666ZM1.7002 9.94922C1.56921 10.6113 1.5 11.2968 1.5 12C1.5 12.7032 1.56921 13.3887 1.7002 14.0508L0.228516 14.3408C0.0788069 13.5837 0 12.8011 0 12C0 11.1986 0.078686 10.4156 0.228516 9.6582L1.7002 9.94922ZM23.7705 9.6582C23.9204 10.4157 24 11.1986 24 12C24 12.8011 23.9202 13.5836 23.7705 14.3408L22.2998 14.0508C22.4308 13.3887 22.5 12.7032 22.5 12C22.5 11.2968 22.4308 10.6113 22.2998 9.94922L23.7705 9.6582ZM6.16699 3.26758C5.02133 4.03459 4.03459 5.02133 3.26758 6.16699L2.02148 5.33301C2.89763 4.02428 4.02428 2.89763 5.33301 2.02148L6.16699 3.26758ZM18.666 2.02148C19.9749 2.89759 21.1013 4.02425 21.9775 5.33301L20.7324 6.16699C19.9654 5.02133 18.9787 4.03459 17.833 3.26758L18.666 2.02148ZM12 0C12.8011 0 13.5837 0.0788069 14.3408 0.228516L14.0508 1.7002C13.3887 1.56921 12.7032 1.5 12 1.5C11.2968 1.5 10.6113 1.56921 9.94922 1.7002L9.6582 0.228516C10.4156 0.078686 11.1986 0 12 0Z"
    fill="currentColor"
  />
</svg>

<svg xmlns="http://www.w3.org/2000/svg" width="24" height="24" fill="none" data-fui-icon="true" viewBox="0 0 24 24"><path fill="currentColor" d="M14.34 23.77a12.1 12.1 0 0 1-4.682 0l.291-1.47a10.6 10.6 0 0 0 4.102 0zM3.269 17.833a10.6 10.6 0 0 0 2.899 2.9l-.834 1.244a12.1 12.1 0 0 1-3.312-3.311zm18.71.833a12.1 12.1 0 0 1-3.312 3.311l-.833-1.245a10.6 10.6 0 0 0 2.9-2.899zM1.7 9.949a10.6 10.6 0 0 0 0 4.102l-1.471.29a12.1 12.1 0 0 1 0-4.683zm22.07-.29a12.1 12.1 0 0 1 0 4.682l-1.47-.29a10.6 10.6 0 0 0 0-4.102zM6.167 3.267a10.6 10.6 0 0 0-2.9 2.899l-1.246-.834a12.1 12.1 0 0 1 3.312-3.312zM18.666 2.02a12.1 12.1 0 0 1 3.311 3.312l-1.245.834a10.6 10.6 0 0 0-2.899-2.9zM12 0c.801 0 1.584.079 2.34.229L14.05 1.7a10.6 10.6 0 0 0-4.1 0L9.657.23C10.416.079 11.198 0 12 0"/></svg>
